assets/Keycap 1/Flat/keycap_1_flat.svg

<svg width="32" height="32" viewBox="0 0 32 32" fill="none" xmlns="http://www.w3.org/2000/svg">
<path d="M2 6C2 3.79086 3.79086 2 6 2H26C28.2091 2 30 3.79086 30 6V26C30 28.2091 28.2091 30 26 30H6C3.79086 30 2 28.2091 2 26V6Z" fill="#00A6ED"/>
<path d="M17.5741 7.87521C18.2386 8.14096 18.6743 8.78446 18.6743 9.50006V22.5001C18.6743 23.4666 17.8908 24.2501 16.9243 24.2501C15.9578 24.2501 15.1743 23.4666 15.1743 22.5001V13.8754L15.0173 14.0402C14.3508 14.7402 13.2431 14.7672 12.5432 14.1007C11.8433 13.4342 11.8162 12.3265 12.4827 11.6266L15.6569 8.29324C16.1504 7.77501 16.9097 7.60946 17.5741 7.87521Z" fill="white"/>
</svg>

<svg xmlns="http://www.w3.org/2000/svg" width="32" height="32" fill="none"><path fill="#00A6ED" d="M2 6a4 4 0 0 1 4-4h20a4 4 0 0 1 4 4v20a4 4 0 0 1-4 4H6a4 4 0 0 1-4-4V6Z"/><path fill="#fff" d="M17.574 7.875c.665.266 1.1.91 1.1 1.625v13a1.75 1.75 0 1 1-3.5 0v-8.625l-.157.165a1.75 1.75 0 1 1-2.534-2.413l3.174-3.334a1.75 1.75 0 0 1 1.917-.418Z"/></svg>
